cellphone-settings.svg

<svg fill="currentColor" viewBox="0 0 24 24"><path d="M16 16H8V4h8m0-4H8a2 2 0 0 0-2 2v16a2 2 0 0 0 2 2h8a2 2 0 0 0 2-2V2a2 2 0 0 0-2-2m-1 24h2v-2h-2m-4 2h2v-2h-2m-4 2h2v-2H7z"/></svg>

<svg  viewBox="0 0 24 24" fill="currentColor"><path  d="M16,16H8V4H16M16,0H8A2,2 0 0,0 6,2V18A2,2 0 0,0 8,20H16A2,2 0 0,0 18,18V2A2,2 0 0,0 16,0M15,24H17V22H15M11,24H13V22H11M7,24H9V22H7V24Z"/></svg>
